packages/sources/assets/src/assets/flag-mz.svg

<svg width="28" height="20" viewBox="0 0 28 20" fill="none" xmlns="http://www.w3.org/2000/svg">
<rect width="28" height="20" rx="2" fill="white"/>
<mask id="mask0_503_4782" style="mask-type:alpha" maskUnits="userSpaceOnUse" x="0" y="0" width="28" height="20">
<rect width="28" height="20" rx="2" fill="white"/>
</mask>
<g mask="url(#mask0_503_4782)">
<path fill-rule="evenodd" clip-rule="evenodd" d="M0 20H28V14.6667H0V20Z" fill="#FFE547"/>
<path fill-rule="evenodd" clip-rule="evenodd" d="M0 5.33333H28V0H0V5.33333Z" fill="#118C81"/>
<path fill-rule="evenodd" clip-rule="evenodd" d="M0 14.6667H28V5.33334H0V14.6667Z" fill="white"/>
<path fill-rule="evenodd" clip-rule="evenodd" d="M0 13.3333H28V6.66666H0V13.3333Z" fill="#262626"/>
<path fill-rule="evenodd" clip-rule="evenodd" d="M0 0L13.3333 10L0 20V0Z" fill="#EF2147"/>
<path fill-rule="evenodd" clip-rule="evenodd" d="M4.66683 11.2741L2.70755 12.6967L3.45511 10.3937L1.49664 8.96996L3.91794 8.96927L4.66683 6.66669L5.41571 8.96927L7.83702 8.96996L5.87855 10.3937L6.62611 12.6967L4.66683 11.2741Z" fill="#FDE444"/>
</g>
</svg>

<svg width="28" height="20" fill="none" xmlns="http://www.w3.org/2000/svg"><rect width="28" height="20" rx="2" fill="#fff"/><mask id="a" style="mask-type:alpha" maskUnits="userSpaceOnUse" x="0" y="0" width="28" height="20"><rect width="28" height="20" rx="2" fill="#fff"/></mask><g mask="url(#a)" fill-rule="evenodd" clip-rule="evenodd"><path d="M0 20h28v-5.333H0V20Z" fill="#FFE547"/><path d="M0 5.333h28V0H0v5.333Z" fill="#118C81"/><path d="M0 14.667h28V5.333H0v9.334Z" fill="#fff"/><path d="M0 13.333h28V6.667H0v6.666Z" fill="#262626"/><path d="m0 0 13.333 10L0 20V0Z" fill="#EF2147"/><path d="m4.667 11.274-1.96 1.423.748-2.303L1.497 8.97h2.42l.75-2.303.749 2.302 2.421.001-1.958 1.424.747 2.303-1.96-1.423Z" fill="#FDE444"/></g></svg>
